icons/tokens/0x5BC25f649fc4e26069dDF4cF4010F9f706c23831/logo.svg

<svg width="32" height="32" viewBox="0 0 32 32" fill="none" xmlns="http://www.w3.org/2000/svg">
<path fill-rule="evenodd" clip-rule="evenodd" d="M32 16C32 7.17152 24.8285 0 16 0C7.17152 0 0 7.17152 0 16C0 24.8285 7.17152 32 16 32C24.8285 32 32 24.8285 32 16Z" fill="#5956E9"/>
<path fill-rule="evenodd" clip-rule="evenodd" d="M8.64993 18.5462L13.0259 9.4064L9.04225 22.4502C8.85793 21.6144 8.67361 20.7789 8.48961 19.943C8.38561 19.4723 8.44225 18.9808 8.64993 18.5462Z" fill="white"/>
<path fill-rule="evenodd" clip-rule="evenodd" d="M15.3898 22.0198C14.3008 21.1091 13.2115 20.1984 12.1226 19.2877C11.929 19.1261 11.7879 18.9117 11.7165 18.672C11.6448 18.4317 11.6458 18.1757 11.721 17.937C11.9085 17.3398 12.0935 16.7418 12.2759 16.143L15.3911 20.0368L15.3898 22.0198Z" fill="white"/>
<path fill-rule="evenodd" clip-rule="evenodd" d="M13.0317 13.7699L16.0359 3.96001C17.0371 7.22977 18.0387 10.4998 19.04 13.7699C19.1239 14.0435 19.1405 14.3341 19.0874 14.6166C19.0349 14.8982 18.9133 15.1622 18.7344 15.3872C17.8317 16.5206 16.9322 17.6566 16.0359 18.7952C15.1363 17.6592 14.2368 16.5232 13.3373 15.3872C13.1591 15.1619 13.0384 14.8979 12.9843 14.6154C12.9306 14.3341 12.9475 14.0432 13.0317 13.7699Z" fill="white"/>
<path fill-rule="evenodd" clip-rule="evenodd" d="M19.7241 16.0714C19.9091 16.6694 20.0941 17.2675 20.2793 17.8653C20.3536 18.1053 20.3555 18.3603 20.2835 18.6003C20.2115 18.8413 20.0717 19.0547 19.8774 19.2163C18.7862 20.1248 17.6969 21.0355 16.6093 21.9482V19.9651L19.7241 16.0714Z" fill="white"/>
<path fill-rule="evenodd" clip-rule="evenodd" d="M16.6093 27.9683V23.6803L20.8928 20.0851C21.2902 21.375 21.6873 22.665 22.0848 23.9546C22.1497 24.1658 22.1411 24.392 22.0592 24.5971C21.9776 24.8022 21.8297 24.9744 21.6368 25.0851C19.9616 26.0474 18.2857 27.0083 16.6093 27.9683Z" fill="white"/>
<path fill-rule="evenodd" clip-rule="evenodd" d="M22.9581 22.5619L18.9744 9.4688C20.4327 12.5267 21.8909 15.585 23.3491 18.6432C23.5571 19.0794 23.6147 19.5728 23.5107 20.0448C23.3258 20.8838 23.1418 21.7229 22.9581 22.5619Z" fill="white"/>
<path fill-rule="evenodd" clip-rule="evenodd" d="M15.391 27.9683C13.7149 27.0074 12.039 26.0464 10.3632 25.0851C10.1702 24.9744 10.0214 24.8026 9.9408 24.5971C9.86016 24.3917 9.8496 24.1658 9.91552 23.9546C10.3174 22.6662 10.7146 21.3763 11.1072 20.0851L15.391 23.6803V27.9683Z" fill="white"/>
</svg>

<svg width="32" height="32" fill="none" xmlns="http://www.w3.org/2000/svg"><path fill-rule="evenodd" clip-rule="evenodd" d="M32 16c0-8.828-7.172-16-16-16S0 7.172 0 16s7.172 16 16 16 16-7.172 16-16z" fill="#5956E9"/><path fill-rule="evenodd" clip-rule="evenodd" d="M8.65 18.546l4.376-9.14L9.042 22.45l-.552-2.507a2.159 2.159 0 01.16-1.397zM15.39 22.02c-1.09-.91-2.179-1.822-3.267-2.732a1.278 1.278 0 01-.406-.616c-.072-.24-.071-.496.004-.735.188-.597.373-1.195.555-1.794l3.115 3.894-.001 1.983zM13.032 13.77l3.004-9.81 3.004 9.81a1.772 1.772 0 01-.306 1.617 763.902 763.902 0 00-2.698 3.408l-2.699-3.408a1.756 1.756 0 01-.306-1.617zM19.724 16.071l.555 1.794a1.272 1.272 0 01-.402 1.351 1093.4 1093.4 0 00-3.268 2.732v-1.983l3.115-3.894zM16.61 27.968V23.68l4.283-3.595 1.192 3.87a.979.979 0 01-.448 1.13 4319.24 4319.24 0 01-5.028 2.883zM22.958 22.562L18.974 9.469l4.375 9.174c.208.436.266.93.162 1.402a1888.7 1888.7 0 00-.553 2.517zM15.391 27.968l-5.028-2.883a.972.972 0 01-.447-1.13c.401-1.289.799-2.579 1.191-3.87l4.284 3.595v4.288z" fill="#fff"/></svg>
